!!!OTL: Weltliches Mailied
!!!ARE: Europa, Mitteleuropa, Deutschland
!!!SCT: A0143
!!!YEM: Copyright 1995, estate of Helmut Schaffrath.
**kern
*ICvox
*Ivox
*M4/4
*k[b-e-]
*B-:
{4b-
=1
4b-
4b-
4b-
4g
=2
2f
4.cc}
{8dd
=3
4.cc
8b-
4a
4g
=4
4.f
8g
4f}
{4b-
=5
4b-
4b-
4a
4f
=6
2b-
4cc}
{4cc
=7
4cc
4cc
4dd
4dd
=8
4.cc
8b-
4cc}
{4cc
=9
4ff
4ee-
4dd
4cc
=10
2b-
4ee-}
{4cc
=11
4dd
4cc
4b-
4a
=12
2b-
4r}
==
!!!AGN: Romanze, Ballade, Lied
!! Original unter "Wer sich des Maiens woelle"
!!!ONB: ESAC (Essen Associative Code) Database: ALTDEU
!!!AMT: simple quadruple
!!!AIN: vox
!!!EED: Helmut Schaffrath
!!!EEV: 1.0
*-
